svg/blobs-icons/no-decorations/slippers.svg

<svg xmlns="http://www.w3.org/2000/svg" xmlns:xlink="http://www.w3.org/1999/xlink" preserveAspectRatio="xMidYMid" width="209" height="217" viewBox="0 0 209 217"><defs><style>.cls-3{fill:#0cb04a}.cls-5{fill:#020403;opacity:.35}.cls-13{fill:#142a3b}</style></defs><g id="group-152svg"><path d="M209.333 43.971c0-24.28-21.782-43.963-48.651-43.963-26.868.0-48.65 19.683-48.65 43.963C112.032 54.821 121.292 84.482 121.409 84.857 121.414 84.872 121.414 84.867 121.424 84.88 127.853 94.416 132.107 108.559 132.107 127.311c0 18.735-1.90899999999999 30.533-8.322 40.062C123.765 167.401 123.755 167.435 123.755 167.469v13.484c0 18.515 13.965 34.76 32.446 35.87 20.068 1.208 36.719-14.711 36.719-34.518V160.763S192.914 160.716 192.905 160.693C188.579 151.011 188.231 142.215 188.231 127.311 188.231 112.387 190.925 101.244 195.265 91.549c0 0 14.068-34.489 14.068-47.578z" id="path-1" class="cls-3" fill-rule="evenodd"/><path d="M.005 43.971C.005 19.691 21.787.008 48.656.008c26.868.0 48.65 19.683 48.65 43.963.0 10.85-9.261 40.511-9.377 40.886C87.924 84.872 87.923 84.867 87.914 84.88 81.484 94.416 77.231 108.559 77.231 127.311c0 18.735 1.908 30.533 8.322 40.062C85.572 167.401 85.582 167.435 85.582 167.469v13.484c0 18.515-13.964 34.76-32.444 35.87-20.068 1.208-36.721-14.711-36.721-34.518V160.763S16.423 160.716 16.433 160.693C20.758 151.011 21.107 142.215 21.107 127.311c0-14.924-2.694-26.067-7.034-35.762.0.0-14.068-34.489-14.068-47.578z" id="path-2" class="cls-3" fill-rule="evenodd"/><path d="M48.656.008c-2.134.0-4.219.167-6.28.407 23.895 2.79 42.371 21.204 42.371 43.556.0 10.85-9.262 40.511-9.378 40.886C75.364 84.872 75.364 84.867 75.354 84.88 68.925 94.415 64.671 108.559 64.671 127.311 64.671 146.046 66.579 157.844 72.993 167.373 73.013 167.401 73.023 167.434 73.023 167.469v13.484c0 17.099-11.92 32.232-28.298 35.326C47.436 216.779 50.245 216.997 53.137 216.823 71.618 215.713 85.582 199.468 85.582 180.953 85.582 180.953 85.572 167.401 85.553 167.373c-6.414-9.529-8.322-21.327-8.322-40.062.0-18.752 4.253-32.896 10.683-42.431C87.924 84.867 87.924 84.872 87.929 84.857c.116-.375 9.377-30.036 9.377-40.886.0-24.28-21.782-43.963-48.65-43.963z" id="path-3" class="cls-5" fill-rule="evenodd"/><path d="M209.333 43.971c0-24.28-21.782-43.963-48.651-43.963C158.549.008 156.464.175 154.402.415c23.896 2.79 42.371 21.204 42.371 43.556.0 13.089-14.069 47.578-14.069 47.578C178.365 101.244 175.671 112.387 175.671 127.311 175.671 142.215 176.019 151.011 180.345 160.693 180.355 160.716 180.36 160.74 180.36 160.74s0 21.564.0 21.564c0 16.953-12.21 31.019-28.307 33.975C153.409 216.536 154.786 216.739 156.201 216.823c20.068 1.208 36.719-14.711 36.719-34.519V160.763S192.914 160.716 192.905 160.693C188.579 151.011 188.231 142.215 188.231 127.311 188.231 112.387 190.925 101.244 195.264 91.549c0 0 14.069-34.489 14.069-47.578z" id="path-4" class="cls-5" fill-rule="evenodd"/><path d="M164.566 62.027C164.554 62.027 164.54 62.027 164.525 62.027 162.529 62.004 160.929 60.367 160.951 58.371L161.255 31.695C161.278 29.714 162.891 28.121 164.87 28.121 164.883 28.121 164.896 28.121 164.91 28.121 166.907 28.145 168.507 29.781 168.484 31.777L168.181 58.452C168.158 60.435 166.544 62.027 164.566 62.027z" id="path-5" class="cls-5" fill-rule="evenodd"/><path d="M188.391 100.837C188.129 100.837 187.864 100.809 187.598 100.75 185.65 100.314 184.425 98.382 184.86 96.433 187.833 83.132 187.731 73 184.55 65.452c-3.429-8.134-10.598-13.318-21.914-15.847C160.687 49.169 159.462 47.236 159.896 45.288 160.332 43.341 162.264 42.127 164.214 42.549c13.572 3.034 22.655 9.796 26.997 20.095C194.997 71.626 195.226 83.192 191.915 98.011 191.539 99.693 190.046 100.837 188.391 100.837z" id="path-6" class="cls-5" fill-rule="evenodd"/><path d="M132.213 100.837C130.558 100.837 129.064 99.693 128.689 98.011 125.612 84.243 127.227 71.831 133.361 62.119c6.143-9.728 16.662-16.495 30.416-19.57C165.733 42.125 167.66 43.341 168.094 45.288 168.529 47.236 167.303 49.169 165.355 49.605 153.518 52.252 144.567 57.913 139.472 65.979 134.382 74.038 133.094 84.571 135.746 96.433 136.179 98.382 134.954 100.314 133.006 100.75 132.739 100.809 132.474 100.837 132.213 100.837z" id="path-7" class="cls-5" fill-rule="evenodd"/><path d="M51.081 62.027C51.069 62.027 51.055 62.027 51.042 62.027 49.044 62.004 47.444 60.367 47.467 58.371L47.768 31.695C47.792 29.714 49.404 28.121 51.383 28.121 51.396 28.121 51.41 28.121 51.424 28.121 53.42 28.145 55.021 29.781 54.998 31.777L54.695 58.452C54.673 60.435 53.059 62.027 51.081 62.027z" id="path-8" class="cls-5" fill-rule="evenodd"/><path d="M74.904 100.837C74.643 100.837 74.378 100.809 74.112 100.75 72.163 100.314 70.939 98.382 71.373 96.433 74.347 83.132 74.244 73 71.063 65.452c-3.429-8.134-10.595-13.318-21.912-15.847C47.202 49.169 45.977 47.236 46.412 45.288 46.848 43.341 48.778 42.127 50.729 42.549 64.3 45.583 73.383 52.345 77.726 62.644 81.51 71.626 81.74 83.192 78.429 98.011 78.052 99.693 76.56 100.837 74.904 100.837z" id="path-9" class="cls-5" fill-rule="evenodd"/><path d="M18.729 100.837C17.073 100.837 15.579 99.693 15.204 98.011c-3.076-13.77-1.461-26.18 4.672-35.892 6.143-9.728 16.66-16.495 30.416-19.57C52.246 42.125 54.176 43.341 54.609 45.288 55.043 47.236 53.818 49.169 51.87 49.605 40.031 52.252 31.082 57.913 25.988 65.979c-5.09 8.059-6.381 18.592-3.728 30.454C22.694 98.382 21.469 100.314 19.522 100.75 19.254 100.809 18.989 100.837 18.729 100.837z" id="path-10" class="cls-5" fill-rule="evenodd"/><path d="M160.682 53.664C158.686 53.664 157.066 52.046 157.066 50.05V14.99c0-1.996 1.62-3.614 3.61599999999999-3.614C162.678 11.376 164.297 12.994 164.297 14.99V50.05c0 1.996-1.619 3.614-3.61500000000001 3.614z" id="path-11" class="cls-13" fill-rule="evenodd"/><path d="M193.005 100.837C192.743 100.837 192.479 100.809 192.212 100.75 190.264 100.314 189.038 98.382 189.473 96.433 192.194 84.255 190.449 69.577 184.804 57.173 178.784 43.944 169.425 35.311 158.449 32.856 156.5 32.421 155.276 30.489 155.709 28.54 156.146 26.593 158.082 25.373 160.026 25.801c13.241 2.959 24.378 13.038 31.358 28.376C197.658 67.966 199.579 84.35 196.529 98.011 196.153 99.693 194.66 100.837 193.005 100.837z" id="path-12" class="cls-13" fill-rule="evenodd"/><path d="M127.509 100.837C125.853 100.837 124.359 99.693 123.983 98.011 120.916 84.286 122.665 67.918 128.66 54.225c6.732-15.377 17.717-25.47 30.931-28.424C161.55 25.371 163.474 26.593 163.908 28.54 164.341 30.489 163.117 32.421 161.169 32.856c-10.91 2.438-20.103 11.057-25.887 24.269C129.882 69.461 128.295 84.156 131.04 96.433 131.473 98.382 130.25 100.314 128.3 100.75 128.034 100.809 127.769 100.837 127.509 100.837z" id="path-13" class="cls-13" fill-rule="evenodd"/><path d="M48.657 53.664c-1.996.0-3.616-1.618-3.616-3.614V14.99c0-1.996 1.62-3.614 3.616-3.614 1.996.0 3.614 1.618 3.614 3.614V50.05c0 1.996-1.618 3.614-3.614 3.614z" id="path-14" class="cls-13" fill-rule="evenodd"/><path d="M81.831 100.837C81.569 100.837 81.304 100.809 81.037 100.75 79.09 100.314 77.864 98.382 78.298 96.433 81 84.346 79.103 69.684 73.225 57.217 66.982 43.975 57.463 35.324 46.422 32.856 44.473 32.421 43.249 30.489 43.682 28.54 44.119 26.593 46.047 25.373 48 25.801c13.267 2.965 24.548 13.028 31.764 28.332C86.304 68.006 88.394 84.407 85.355 98.011 84.979 99.693 83.486 100.837 81.831 100.837z" id="path-15" class="cls-13" fill-rule="evenodd"/><path d="M16.34 100.837C14.685 100.837 13.192 99.693 12.816 98.011c-6.499-29.088 6.493-66.15 33.606-72.21C48.373 25.371 50.303 26.593 50.738 28.54 51.173 30.489 49.947 32.421 48 32.856 24.924 38.015 14.117 70.677 19.872 96.433 20.307 98.382 19.08 100.314 17.133 100.75 16.866 100.809 16.602 100.837 16.34 100.837z" id="path-16" class="cls-13" fill-rule="evenodd"/></g></svg>

<svg xmlns="http://www.w3.org/2000/svg" xmlns:xlink="http://www.w3.org/1999/xlink" preserveAspectRatio="xMidYMid" width="209" height="217" viewBox="0 0 209 217">
  <defs>
    <style>

      .cls-3 {
        fill: #0cb04a;
      }

      .cls-5 {
        fill: #020403;
        opacity: 0.35;
      }

      .cls-13 {
        fill: #142a3b;
      }
    </style>
  </defs>
  <g id="group-152svg">
    <path d="M209.333,43.971 C209.333,19.691 187.551,0.008 160.682,0.008 C133.814,0.008 112.032,19.691 112.032,43.971 C112.032,54.821 121.292,84.482 121.409,84.857 C121.414,84.872 121.414,84.867 121.424,84.880 C127.853,94.416 132.107,108.559 132.107,127.311 C132.107,146.046 130.198,157.844 123.785,167.373 C123.765,167.401 123.755,167.435 123.755,167.469 C123.755,167.469 123.755,180.953 123.755,180.953 C123.755,199.468 137.720,215.713 156.201,216.823 C176.269,218.031 192.920,202.112 192.920,182.305 C192.920,182.305 192.920,160.763 192.920,160.763 C192.920,160.763 192.914,160.716 192.905,160.693 C188.579,151.011 188.231,142.215 188.231,127.311 C188.231,112.387 190.925,101.244 195.265,91.549 C195.265,91.549 209.333,57.060 209.333,43.971 Z" id="path-1" class="cls-3" fill-rule="evenodd"/>
    <path d="M0.005,43.971 C0.005,19.691 21.787,0.008 48.656,0.008 C75.524,0.008 97.306,19.691 97.306,43.971 C97.306,54.821 88.045,84.482 87.929,84.857 C87.924,84.872 87.923,84.867 87.914,84.880 C81.484,94.416 77.231,108.559 77.231,127.311 C77.231,146.046 79.139,157.844 85.553,167.373 C85.572,167.401 85.582,167.435 85.582,167.469 C85.582,167.469 85.582,180.953 85.582,180.953 C85.582,199.468 71.618,215.713 53.138,216.823 C33.070,218.031 16.417,202.112 16.417,182.305 C16.417,182.305 16.417,160.763 16.417,160.763 C16.417,160.763 16.423,160.716 16.433,160.693 C20.758,151.011 21.107,142.215 21.107,127.311 C21.107,112.387 18.413,101.244 14.073,91.549 C14.073,91.549 0.005,57.060 0.005,43.971 Z" id="path-2" class="cls-3" fill-rule="evenodd"/>
    <path d="M48.656,0.008 C46.522,0.008 44.437,0.175 42.376,0.415 C66.271,3.205 84.747,21.619 84.747,43.971 C84.747,54.821 75.485,84.482 75.369,84.857 C75.364,84.872 75.364,84.867 75.354,84.880 C68.925,94.415 64.671,108.559 64.671,127.311 C64.671,146.046 66.579,157.844 72.993,167.373 C73.013,167.401 73.023,167.434 73.023,167.469 C73.023,167.469 73.023,180.953 73.023,180.953 C73.023,198.052 61.103,213.185 44.725,216.279 C47.436,216.779 50.245,216.997 53.137,216.823 C71.618,215.713 85.582,199.468 85.582,180.953 C85.582,180.953 85.572,167.401 85.553,167.373 C79.139,157.844 77.231,146.046 77.231,127.311 C77.231,108.559 81.484,94.415 87.914,84.880 C87.924,84.867 87.924,84.872 87.929,84.857 C88.045,84.482 97.306,54.821 97.306,43.971 C97.306,19.691 75.524,0.008 48.656,0.008 Z" id="path-3" class="cls-5" fill-rule="evenodd"/>
    <path d="M209.333,43.971 C209.333,19.691 187.551,0.008 160.682,0.008 C158.549,0.008 156.464,0.175 154.402,0.415 C178.298,3.205 196.773,21.619 196.773,43.971 C196.773,57.060 182.704,91.549 182.704,91.549 C178.365,101.244 175.671,112.387 175.671,127.311 C175.671,142.215 176.019,151.011 180.345,160.693 C180.355,160.716 180.360,160.740 180.360,160.740 C180.360,160.740 180.360,182.304 180.360,182.304 C180.360,199.257 168.150,213.323 152.053,216.279 C153.409,216.536 154.786,216.739 156.201,216.823 C176.269,218.031 192.920,202.112 192.920,182.304 C192.920,182.304 192.920,160.763 192.920,160.763 C192.920,160.763 192.914,160.716 192.905,160.693 C188.579,151.011 188.231,142.215 188.231,127.311 C188.231,112.387 190.925,101.244 195.264,91.549 C195.264,91.549 209.333,57.060 209.333,43.971 Z" id="path-4" class="cls-5" fill-rule="evenodd"/>
    <path d="M164.566,62.027 C164.554,62.027 164.540,62.027 164.525,62.027 C162.529,62.004 160.929,60.367 160.951,58.371 C160.951,58.371 161.255,31.695 161.255,31.695 C161.278,29.714 162.891,28.121 164.870,28.121 C164.883,28.121 164.896,28.121 164.910,28.121 C166.907,28.145 168.507,29.781 168.484,31.777 C168.484,31.777 168.181,58.452 168.181,58.452 C168.158,60.435 166.544,62.027 164.566,62.027 Z" id="path-5" class="cls-5" fill-rule="evenodd"/>
    <path d="M188.391,100.837 C188.129,100.837 187.864,100.809 187.598,100.750 C185.650,100.314 184.425,98.382 184.860,96.433 C187.833,83.132 187.731,73.000 184.550,65.452 C181.121,57.318 173.952,52.134 162.636,49.605 C160.687,49.169 159.462,47.236 159.896,45.288 C160.332,43.341 162.264,42.127 164.214,42.549 C177.786,45.583 186.869,52.345 191.211,62.644 C194.997,71.626 195.226,83.192 191.915,98.011 C191.539,99.693 190.046,100.837 188.391,100.837 Z" id="path-6" class="cls-5" fill-rule="evenodd"/>
    <path d="M132.213,100.837 C130.558,100.837 129.064,99.693 128.689,98.011 C125.612,84.243 127.227,71.831 133.361,62.119 C139.504,52.391 150.023,45.624 163.777,42.549 C165.733,42.125 167.660,43.341 168.094,45.288 C168.529,47.236 167.303,49.169 165.355,49.605 C153.518,52.252 144.567,57.913 139.472,65.979 C134.382,74.038 133.094,84.571 135.746,96.433 C136.179,98.382 134.954,100.314 133.006,100.750 C132.739,100.809 132.474,100.837 132.213,100.837 Z" id="path-7" class="cls-5" fill-rule="evenodd"/>
    <path d="M51.081,62.027 C51.069,62.027 51.055,62.027 51.042,62.027 C49.044,62.004 47.444,60.367 47.467,58.371 C47.467,58.371 47.768,31.695 47.768,31.695 C47.792,29.714 49.404,28.121 51.383,28.121 C51.396,28.121 51.410,28.121 51.424,28.121 C53.420,28.145 55.021,29.781 54.998,31.777 C54.998,31.777 54.695,58.452 54.695,58.452 C54.673,60.435 53.059,62.027 51.081,62.027 Z" id="path-8" class="cls-5" fill-rule="evenodd"/>
    <path d="M74.904,100.837 C74.643,100.837 74.378,100.809 74.112,100.750 C72.163,100.314 70.939,98.382 71.373,96.433 C74.347,83.132 74.244,73.000 71.063,65.452 C67.634,57.318 60.468,52.134 49.151,49.605 C47.202,49.169 45.977,47.236 46.412,45.288 C46.848,43.341 48.778,42.127 50.729,42.549 C64.300,45.583 73.383,52.345 77.726,62.644 C81.510,71.626 81.740,83.192 78.429,98.011 C78.052,99.693 76.560,100.837 74.904,100.837 Z" id="path-9" class="cls-5" fill-rule="evenodd"/>
    <path d="M18.729,100.837 C17.073,100.837 15.579,99.693 15.204,98.011 C12.128,84.241 13.743,71.831 19.876,62.119 C26.019,52.391 36.536,45.624 50.292,42.549 C52.246,42.125 54.176,43.341 54.609,45.288 C55.043,47.236 53.818,49.169 51.870,49.605 C40.031,52.252 31.082,57.913 25.988,65.979 C20.898,74.038 19.607,84.571 22.260,96.433 C22.694,98.382 21.469,100.314 19.522,100.750 C19.254,100.809 18.989,100.837 18.729,100.837 Z" id="path-10" class="cls-5" fill-rule="evenodd"/>
    <path d="M160.682,53.664 C158.686,53.664 157.066,52.046 157.066,50.050 C157.066,50.050 157.066,14.990 157.066,14.990 C157.066,12.994 158.686,11.376 160.682,11.376 C162.678,11.376 164.297,12.994 164.297,14.990 C164.297,14.990 164.297,50.050 164.297,50.050 C164.297,52.046 162.678,53.664 160.682,53.664 Z" id="path-11" class="cls-13" fill-rule="evenodd"/>
    <path d="M193.005,100.837 C192.743,100.837 192.479,100.809 192.212,100.750 C190.264,100.314 189.038,98.382 189.473,96.433 C192.194,84.255 190.449,69.577 184.804,57.173 C178.784,43.944 169.425,35.311 158.449,32.856 C156.500,32.421 155.276,30.489 155.709,28.540 C156.146,26.593 158.082,25.373 160.026,25.801 C173.267,28.760 184.404,38.839 191.384,54.177 C197.658,67.966 199.579,84.350 196.529,98.011 C196.153,99.693 194.660,100.837 193.005,100.837 Z" id="path-12" class="cls-13" fill-rule="evenodd"/>
    <path d="M127.509,100.837 C125.853,100.837 124.359,99.693 123.983,98.011 C120.916,84.286 122.665,67.918 128.660,54.225 C135.392,38.848 146.377,28.755 159.591,25.801 C161.550,25.371 163.474,26.593 163.908,28.540 C164.341,30.489 163.117,32.421 161.169,32.856 C150.259,35.294 141.066,43.913 135.282,57.125 C129.882,69.461 128.295,84.156 131.040,96.433 C131.473,98.382 130.250,100.314 128.300,100.750 C128.034,100.809 127.769,100.837 127.509,100.837 Z" id="path-13" class="cls-13" fill-rule="evenodd"/>
    <path d="M48.657,53.664 C46.661,53.664 45.041,52.046 45.041,50.050 C45.041,50.050 45.041,14.990 45.041,14.990 C45.041,12.994 46.661,11.376 48.657,11.376 C50.653,11.376 52.271,12.994 52.271,14.990 C52.271,14.990 52.271,50.050 52.271,50.050 C52.271,52.046 50.653,53.664 48.657,53.664 Z" id="path-14" class="cls-13" fill-rule="evenodd"/>
    <path d="M81.831,100.837 C81.569,100.837 81.304,100.809 81.037,100.750 C79.090,100.314 77.864,98.382 78.298,96.433 C81.000,84.346 79.103,69.684 73.225,57.217 C66.982,43.975 57.463,35.324 46.422,32.856 C44.473,32.421 43.249,30.489 43.682,28.540 C44.119,26.593 46.047,25.373 48.000,25.801 C61.267,28.766 72.548,38.829 79.764,54.133 C86.304,68.006 88.394,84.407 85.355,98.011 C84.979,99.693 83.486,100.837 81.831,100.837 Z" id="path-15" class="cls-13" fill-rule="evenodd"/>
    <path d="M16.340,100.837 C14.685,100.837 13.192,99.693 12.816,98.011 C6.317,68.923 19.309,31.861 46.422,25.801 C48.373,25.371 50.303,26.593 50.738,28.540 C51.173,30.489 49.947,32.421 48.000,32.856 C24.924,38.015 14.117,70.677 19.872,96.433 C20.307,98.382 19.080,100.314 17.133,100.750 C16.866,100.809 16.602,100.837 16.340,100.837 Z" id="path-16" class="cls-13" fill-rule="evenodd"/>
  </g>
</svg>
